resources/haticons/SVG/mp.svg

<!-- Generated by IcoMoon.io -->
<svg version="1.1" xmlns="http://www.w3.org/2000/svg" width="24" height="24" viewBox="0 0 24 24">
<title>mp</title>
<path d="M15.516 12v-1.5h1.5v1.5h-1.5zM15.516 15v-1.5h1.969q0.422 0 0.727-0.281t0.305-0.703v-2.531q0-0.422-0.305-0.703t-0.727-0.281h-3.469v6h1.5zM6.516 9q-0.422 0-0.727 0.281t-0.305 0.703v5.016h1.5v-4.5h1.031v3h1.5v-3h0.984v4.5h1.5v-5.016q0-0.422-0.281-0.703t-0.703-0.281h-4.5zM18.984 3q0.797 0 1.406 0.609t0.609 1.406v13.969q0 0.797-0.609 1.406t-1.406 0.609h-13.969q-0.797 0-1.406-0.609t-0.609-1.406v-13.969q0-0.797 0.609-1.406t1.406-0.609h13.969z"></path>
</svg>

<svg xmlns="http://www.w3.org/2000/svg" width="24" height="24"><path d="M15.516 12v-1.5h1.5V12h-1.5zm0 3v-1.5h1.969q.422 0 .727-.281t.305-.703V9.985q0-.422-.305-.703t-.727-.281h-3.469v6h1.5zm-9-6q-.422 0-.727.281t-.305.703V15h1.5v-4.5h1.031v3h1.5v-3h.984V15h1.5V9.984q0-.422-.281-.703T11.015 9h-4.5zm12.468-6q.797 0 1.406.609t.609 1.406v13.969q0 .797-.609 1.406t-1.406.609H5.015q-.797 0-1.406-.609T3 18.984V5.015q0-.797.609-1.406T5.015 3h13.969z"/></svg>
